coptic-neo-reader/editor/assets/ic_add.svg

<svg xmlns="http://www.w3.org/2000/svg" fill="none" viewBox="0 0 24 24"><path fill="#fff" fill-rule="evenodd" d="M2 5h12v2H2V5Zm0 4h12v2H2V9Zm16 0h-2v4h-4v2h4v4h2v-4h4v-2h-4V9Zm-8 6H2v-2h8v2Z" clip-rule="evenodd"/></svg>

<svg width="24" height="24" viewBox="0 0 24 24" fill="none" xmlns="http://www.w3.org/2000/svg">
<g id="icon/av/playlist_add_24px">
<path id="icon/av/playlist_add_24px_2" fill-rule="evenodd" clip-rule="evenodd" d="M2 5H14V7H2V5ZM2 9H14V11H2V9ZM18 9H16V13H12V15H16V19H18V15H22V13H18V9ZM10 15H2V13H10V15Z" fill="white" />
</g>
</svg>
